X:1
T:HORNPIPE
L:1/8
M:4/4
I:linebreak $
K:D
V:1 treble 
V:1
 (fg) | afdA BdcB | AdAd BdcB | Adfa |1,3 gfeg fedf e2 :|2,4 gece | d2 f2 d2 :: (!fermata!cB) |$ %8
 Acec egfe | dfa^g bafd | gfeg fedf | ecdB A2 (cB) | Acec egfe |$ dfa^g bafd | gfeg fedf | %15
 ea^gb a2!D.C.! :| %16
